X: 36
T: Grandfather's Clock v.2
P: piffero primo a0022
O: Dan Moylan
F: http://ancients.sudburymuster.org/mus/med/pdf/fyf05F.pdf
Z: 2020 John Chambers <jc:trillian.mit.edu>
M: 2/4
L: 1/16
K: D
z2 |\
F2GA G2FE | D2EF G2G2 | F2F2 G2AG | FEDE F2A,2 |\
F2GA G2FE | D2EF G2G2 | F2F2 G2AG | F4 z2 :|
|: A2 |\
DEFG F2F2 | GFED C2 A2 | D2F2 A2EF | G4 z2GG |\
."^>"F2z2 ."^>"G2z2 | ADEF G2G2 | F2F2 G2AG | F4 z2 :|
|: z2 |\
.F2D2 .A,2.D2 | .F2D2 .A,2.D2 | .F2D2 .A,2.D2 | .F2D2 .A,2.D2 |\
."^>"F2A,2 ."^>"G2A,2 | ."^>"A2A,2 ."^>"G2A,2 | F2F2 G2AG | F4 z2 :|


